src/assets/duotone/UserTick.svg

<svg width="24" height="24" viewBox="0 0 24 24"  xmlns="http://www.w3.org/2000/svg">
<path d="M18 13C17.06 13 16.19 13.33 15.5 13.88C14.58 14.61 14 15.74 14 17C14 17.75 14.21 18.46 14.58 19.06C15.27 20.22 16.54 21 18 21C19.01 21 19.93 20.63 20.63 20C20.94 19.74 21.21 19.42 21.42 19.06C21.79 18.46 22 17.75 22 17C22 14.79 20.21 13 18 13ZM20.07 16.57L17.94 18.54C17.8 18.67 17.61 18.74 17.43 18.74C17.24 18.74 17.05 18.67 16.9 18.52L15.91 17.53C15.62 17.24 15.62 16.76 15.91 16.47C16.2 16.18 16.68 16.18 16.97 16.47L17.45 16.95L19.05 15.47C19.35 15.19 19.83 15.21 20.11 15.51C20.39 15.81 20.37 16.28 20.07 16.57Z" />
<path opacity="0.4" d="M21.0901 21.5C21.0901 21.78 20.8701 22 20.5901 22H3.41016C3.13016 22 2.91016 21.78 2.91016 21.5C2.91016 17.36 6.99015 14 12.0002 14C13.0302 14 14.0302 14.14 14.9502 14.41C14.3602 15.11 14.0002 16.02 14.0002 17C14.0002 17.75 14.2101 18.46 14.5801 19.06C14.7801 19.4 15.0401 19.71 15.3401 19.97C16.0401 20.61 16.9702 21 18.0002 21C19.1202 21 20.1302 20.54 20.8502 19.8C21.0102 20.34 21.0901 20.91 21.0901 21.5Z" />
<path d="M12 12C14.7614 12 17 9.76142 17 7C17 4.23858 14.7614 2 12 2C9.23858 2 7 4.23858 7 7C7 9.76142 9.23858 12 12 12Z" />
</svg>

<?xml version="1.0" encoding="UTF-8"?>
<svg width="24" height="24" viewBox="0 0 24 24" xmlns="http://www.w3.org/2000/svg">
 <path d="m18 13c-0.94 0-1.81 0.33-2.5 0.88-0.92 0.73-1.5 1.86-1.5 3.12 0 0.75 0.21 1.46 0.58 2.06 0.69 1.16 1.96 1.94 3.42 1.94 1.01 0 1.93-0.37 2.63-1 0.31-0.26 0.58-0.58 0.79-0.94 0.37-0.6 0.58-1.31 0.58-2.06 0-2.21-1.79-4-4-4zm2.07 3.57-2.13 1.97c-0.14 0.13-0.33 0.2-0.51 0.2-0.19 0-0.38-0.07-0.53-0.22l-0.99-0.99c-0.29-0.29-0.29-0.77 0-1.06s0.77-0.29 1.06 0l0.48 0.48 1.6-1.48c0.3-0.28 0.78-0.26 1.06 0.04s0.26 0.77-0.04 1.06z"/>
 <path d="m21.09 21.5c0 0.28-0.22 0.5-0.5 0.5h-17.18c-0.28 0-0.5-0.22-0.5-0.5 0-4.14 4.08-7.5 9.09-7.5 1.03 0 2.03 0.14 2.95 0.41-0.59 0.7-0.95 1.61-0.95 2.59 0 0.75 0.2099 1.46 0.5799 2.06 0.2 0.34 0.46 0.65 0.76 0.91 0.7 0.64 1.6301 1.03 2.6601 1.03 1.12 0 2.13-0.46 2.85-1.2 0.16 0.54 0.2399 1.11 0.2399 1.7z" opacity=".4"/>
 <path d="m12 12c2.7614 0 5-2.2386 5-5s-2.2386-5-5-5c-2.7614 0-5 2.2386-5 5s2.2386 5 5 5z"/>
</svg>
